X:1
T:Title
%%score { ( 1 3 ) | ( 2 4 ) }
L:1/8
M:6/8
K:Bb
V:1 treble nm="Grand Piano"
V:3 treble 
V:2 bass 
V:4 bass 
V:1
 z3 z2[Q:1/4=100] [DF] | [DF]>[EG][DF] [DF][B,D][DF] | [DB]>[Ec][Fd] [Fd]2 [DB] | c>=Bc ddc | %4
 B3 z3 | [DF]>[EG][DF] [DF][B,D][DF] | [DB]>[Ec][Fd] [Fd]2 [DB] | c>=Bc ddc | [DB]6 | B>GB [Ge]3 | %10
 [DF]>[B,D][DF] [DB]2 [Fd] | c>cc cBc | d3 .B3 | G3 [EGB]2 [B,EG] | D2- [DB] [Fd]2 [DB] | %15
[M:13/16] c>=Bcdd3/2c |[M:5/8] [DB]-[DB]- [DB]3 |] %17
V:2
 z3 z2 [B,,B,] | [B,,B,]>[B,,B,][B,,B,] [B,,B,][B,,F,][B,,B,] | %2
 [B,,F,]>[B,,F,][B,,B,] [B,,B,]2 [B,,B,] | [F,A,E]>[F,_A,D][F,=A,E] [F,B,F][F,B,F][F,E] | %4
 F,3 z2 [B,,B,] | [B,,B,]>[B,,B,][B,,B,] [B,,B,][B,,F,][B,,B,] | %6
 [B,,F,]>[B,,F,][B,,B,] [B,,B,]2 [B,,B,] | [F,A,E]>[F,_A,D][F,=A,E] [F,B,F][F,B,F][F,E] | %8
 [B,,F,]6 | [E,G,E]>[E,B,E][E,G,E] [E,B,]3 | [B,,B,]>[B,,F,][B,,B,] [B,,F,]2 [B,,F,] | %11
 [F,A,F]>[F,A,F][F,A,F] [F,A,F][F,G,F][F,A,F] | F3 .[DF]3 | [E,B,E]3 E,2 E, | %14
 z2 F, [B,,B,]2 [B,,B,] |[M:13/16] [F,A,E]>[F,_A,D][F,=A,E][F,B,F][F,B,F]3/2[F,E] | %16
[M:5/8] [B,,F,]-[B,,F,]- [B,,F,]3 |] %17
V:3
 x6 | x6 | x6 | x6 | D3- [B,DF]2 [DF] | x6 | x6 | x6 | x6 | x6 | x6 | x6 | x6 | x6 | .[B,F]3 z3 | %15
[M:13/16] x13/2 |[M:5/8] x5 |] %17
V:4
 x6 | x6 | x6 | x6 | B,,6 | x6 | x6 | x6 | x6 | x6 | x6 | x6 | B,6 | x6 | B,,3 z3 | %15
[M:13/16] x13/2 |[M:5/8] x5 |] %17

